docs/.gitbook/assets/icon-lock-disabled-16@light.svg

<svg width="32" height="32" viewBox="0 0 16 16" fill="none" xmlns="http://www.w3.org/2000/svg">
<rect x="0" y="0" width="16" height="16" fill="#fff"/>
<path fill-rule="evenodd" clip-rule="evenodd" d="M1.21967 1.21967C1.51256 0.926777 1.98744 0.926777 2.28033 1.21967L4.37284 3.31218C5.00933 1.9465 6.39368 1 8.00013 1C10.2093 1 12.0001 2.79086 12.0001 5V5.10355C13.1543 5.43006 14 6.49127 14 7.75V12.9393L14.7803 13.7197C15.0732 14.0126 15.0732 14.4874 14.7803 14.7803C14.4874 15.0732 14.0126 15.0732 13.7197 14.7803L1.21967 2.28033C0.926777 1.98744 0.926777 1.51256 1.21967 1.21967ZM12.5 11.4393V7.75C12.5 7.05964 11.9404 6.5 11.25 6.5H7.56066L12.5 11.4393ZM6.06066 5H10.5001C10.5001 3.61929 9.38085 2.5 8.00013 2.5C6.79425 2.5 5.78647 3.3545 5.55181 4.49115L6.06066 5ZM2.75 7C3.16421 7 3.5 7.33579 3.5 7.75V12.25C3.5 12.9404 4.05964 13.5 4.75 13.5H10.25C10.6642 13.5 11 13.8358 11 14.25C11 14.6642 10.6642 15 10.25 15H4.75C3.23122 15 2 13.7688 2 12.25V7.75C2 7.33579 2.33579 7 2.75 7Z" fill="#000"/>
</svg>

<svg xmlns="http://www.w3.org/2000/svg" width="32" height="32" fill="none" viewBox="0 0 16 16"><path fill="#fff" d="M0 0h16v16H0z"/><path fill="#000" fill-rule="evenodd" d="M1.22 1.22a.75.75 0 0 1 1.06 0l2.093 2.092A4 4 0 0 1 12 5v.104a2.75 2.75 0 0 1 2 2.646v5.19l.78.78a.75.75 0 1 1-1.06 1.06L1.22 2.28a.75.75 0 0 1 0-1.06M12.5 11.44V7.75c0-.69-.56-1.25-1.25-1.25H7.56zM6.06 5h4.44a2.5 2.5 0 0 0-4.948-.509zM2.75 7a.75.75 0 0 1 .75.75v4.5c0 .69.56 1.25 1.25 1.25h5.5a.75.75 0 0 1 0 1.5h-5.5A2.75 2.75 0 0 1 2 12.25v-4.5A.75.75 0 0 1 2.75 7" clip-rule="evenodd"/></svg>
